src/lib/packages/icons/src/assets/filled/chat-shield.svg

<svg width="24" height="24" viewBox="0 0 24 24" fill="none" xmlns="http://www.w3.org/2000/svg">
<path d="M12.001 3C7.031 3 3.00197 7.02902 3.00197 11.999C3.00197 13.339 3.30205 14.619 3.83205 15.758C4.04205 16.198 4.04211 16.708 3.89211 17.178L3.05202 19.678C2.79202 20.458 3.54204 21.208 4.32204 20.948L6.82204 20.108C7.29204 19.958 7.80196 19.958 8.24196 20.168C9.38196 20.698 10.662 20.998 12.002 20.998C16.972 20.998 21.001 16.969 21.001 11.999C21 7.02902 16.971 3 12.001 3ZM15.5 11.556C15.5 14.223 13.312 15.556 12 16C10.688 15.556 8.50002 14.222 8.50002 11.556C8.50002 11.081 8.50002 9.78898 8.50002 9.33398C10.25 8.83198 11.1251 8.44498 12.0071 8.00098C12.8751 8.44498 13.75 8.832 15.5 9.276C15.5 9.753 15.5 11.065 15.5 11.556Z" fill="currentColor"/>
</svg>

<svg xmlns="http://www.w3.org/2000/svg" width="24" height="24" fill="none"><path fill="currentColor" d="M12.001 3a9 9 0 0 0-8.999 8.999c0 1.34.3 2.62.83 3.759.21.44.21.95.06 1.42l-.84 2.5c-.26.78.49 1.53 1.27 1.27l2.5-.84c.47-.15.98-.15 1.42.06 1.14.53 2.42.83 3.76.83A8.999 8.999 0 1 0 12.001 3Zm3.499 8.556c0 2.667-2.188 4-3.5 4.444-1.312-.444-3.5-1.778-3.5-4.444V9.334c1.75-.502 2.625-.889 3.507-1.333.868.444 1.743.831 3.493 1.275v2.28Z"/></svg>
